svgs/firefox_beta.svg

<svg width="192" height="192" viewBox="0 0 192 192" fill="none" xmlns="http://www.w3.org/2000/svg"><path fill-rule="evenodd" clip-rule="evenodd" d="M120.212 16.118a5.998 5.998 0 0 1 4.183 3.202c5.589 11.196 13.479 19.363 21.725 27.898 2.342 2.424 4.713 4.878 7.067 7.439C163.623 66.009 173 78.956 173 98.883c0 .503-.005 1.005-.014 1.506a27.989 27.989 0 0 0-12.337-7.331c-1.522-12.268-7.861-21.105-16.296-30.28-1.949-2.12-4.046-4.284-6.218-6.526-6.803-7.02-14.347-14.807-20.422-24.404a77.18 77.18 0 0 0-4.837 6.018c-4.197 5.804-8.059 12.96-9.388 20.61 17.92 2.648 32.321 16.1 36.371 33.524h-12.453C123.207 79.224 111.181 70 97 70a6 6 0 0 1-6-6c0-13.367 6.331-25.114 12.151-33.165a89.778 89.778 0 0 1 8.121-9.687 76.021 76.021 0 0 1 2.712-2.673 53.801 53.801 0 0 1 1.025-.932l.069-.06.023-.02.008-.007.004-.003c.001-.002.003-.003 3.914 4.547l-3.911-4.55a6 6 0 0 1 5.096-1.332Zm-30.13 147.616a27.987 27.987 0 0 0 7.31 12.254c-.463.008-.927.012-1.392.012-42.535 0-77-34.536-77-77.117 0-24.49 11.406-46.32 29.169-60.437a6 6 0 0 1 9.71 4.165l.905 10.174 8.583-6.687a6 6 0 0 1 9.687 4.733c0 10.165 1.42 15.599 4.17 19.472 2.84 4 7.761 7.305 17.242 11.578A6 6 0 0 1 96 93.35c-.67 0-2.323.327-4.778 1.444-2.319 1.054-4.885 2.6-7.259 4.473-2.386 1.883-4.407 3.964-5.79 6.023-1.14 1.698-1.701 3.161-1.87 4.357A20.942 20.942 0 0 0 89 122.43v12.459c-11.733-2.548-21.118-11.369-24.504-22.764a6.002 6.002 0 0 1-.248-1.709c0-4.451 1.73-8.489 3.963-11.814 2.247-3.347 5.224-6.312 8.317-8.753a49.709 49.709 0 0 1 4.888-3.401c-4.043-2.62-7.397-5.564-9.977-9.199-3.021-4.254-4.738-9.097-5.614-14.738l-8.354 6.508a6 6 0 0 1-9.664-4.201l-.779-8.755C37.043 67.513 31 82.49 31 98.883c0 33.973 25.964 61.856 59.082 64.851ZM117 100c-11.046 0-20 8.954-20 20v36c0 11.046 8.954 20 20 20h36c11.046 0 20-8.954 20-20v-36c0-11.046-8.954-20-20-20h-36Zm-8 20a8 8 0 0 1 8-8h36a8 8 0 0 1 8 8v36a8 8 0 0 1-8 8h-36a8 8 0 0 1-8-8v-36Zm20 14h8a3 3 0 1 0 0-6h-8v6Zm17.343 2.809A10.95 10.95 0 0 0 148 131c0-6.075-4.925-11-11-11h-12a4 4 0 0 0-4 4v28a4 4 0 0 0 4 4h14c6.075 0 11-4.925 11-11 0-3.253-1.412-6.177-3.657-8.191ZM137 142h-8v6h10a3 3 0 1 0 0-6h-2Z" fill="#000"/></svg>

<svg id="vector" xmlns="http://www.w3.org/2000/svg" width="192" height="192" viewBox="0 0 192 192"><path fill="#000000" d="M120.212,16.118C122.026,16.484 123.569,17.665 124.395,19.32C129.984,30.516 137.874,38.683 146.12,47.218C148.462,49.642 150.833,52.096 153.187,54.657C163.623,66.008 173,78.955 173,98.883C173,99.386 172.995,99.888 172.986,100.389C169.626,96.966 165.394,94.402 160.649,93.058C159.127,80.79 152.788,71.953 144.353,62.779C142.404,60.659 140.307,58.494 138.135,56.252C131.332,49.232 123.788,41.445 117.713,31.848C116.219,33.529 114.546,35.556 112.876,37.866C108.679,43.671 104.817,50.826 103.488,58.475C121.408,61.124 135.809,74.576 139.859,92H127.406C123.207,79.224 111.181,70 97,70C93.686,70 91,67.314 91,64C91,50.633 97.331,38.886 103.151,30.835C106.109,26.745 109.058,23.438 111.272,21.148C112.382,20 113.316,19.099 113.984,18.475C114.319,18.162 114.587,17.918 114.779,17.746C114.875,17.66 114.952,17.593 115.009,17.543L115.078,17.483L115.101,17.463L115.109,17.456L115.113,17.453C115.114,17.451 115.116,17.45 119.027,22L115.116,17.45C116.519,16.244 118.399,15.753 120.212,16.118ZM90.082,163.734C91.433,168.445 93.987,172.648 97.392,175.988C96.929,175.996 96.465,176 96,176C53.465,176 19,141.464 19,98.883C19,74.393 30.406,52.564 48.169,38.446C49.897,37.072 52.239,36.759 54.268,37.629C56.296,38.499 57.683,40.412 57.878,42.611L58.784,52.785L67.367,46.098C69.175,44.689 71.628,44.434 73.688,45.44C75.748,46.447 77.054,48.539 77.054,50.831C77.054,60.996 78.474,66.429 81.224,70.303C84.064,74.304 88.985,77.608 98.466,81.881C101.044,83.043 102.46,85.847 101.866,88.612C101.272,91.376 98.828,93.351 96,93.351C95.33,93.351 93.677,93.678 91.221,94.795C88.903,95.849 86.337,97.395 83.963,99.268C81.577,101.151 79.555,103.232 78.174,105.291C77.033,106.989 76.472,108.452 76.303,109.648C78.386,115.603 83.08,120.318 89,122.43V134.889C77.267,132.341 67.882,123.52 64.496,112.125C64.331,111.57 64.248,110.994 64.248,110.416C64.248,105.965 65.978,101.927 68.211,98.602C70.458,95.255 73.435,92.29 76.528,89.849C78.103,88.606 79.752,87.463 81.416,86.448C77.373,83.828 74.019,80.884 71.439,77.249C68.418,72.994 66.701,68.152 65.825,62.511L57.471,69.019C55.738,70.369 53.406,70.664 51.392,69.788C49.377,68.912 48.002,67.006 47.807,64.818L47.028,56.063C37.043,67.514 31,82.49 31,98.883C31,132.856 56.964,160.739 90.082,163.734ZM117,100C105.954,100 97,108.954 97,120V156C97,167.046 105.954,176 117,176H153C164.046,176 173,167.046 173,156V120C173,108.954 164.046,100 153,100H117ZM109,120C109,115.582 112.582,112 117,112H153C157.418,112 161,115.582 161,120V156C161,160.418 157.418,164 153,164H117C112.582,164 109,160.418 109,156V120ZM129,134H137C138.657,134 140,132.657 140,131C140,129.343 138.657,128 137,128H129V134ZM146.343,136.809C147.393,135.123 148,133.133 148,131C148,124.925 143.075,120 137,120H125C122.791,120 121,121.791 121,124V138V152C121,154.209 122.791,156 125,156H139C145.075,156 150,151.075 150,145C150,141.747 148.588,138.823 146.343,136.809ZM137,142H129V148H139C140.657,148 142,146.657 142,145C142,143.343 140.657,142 139,142H137Z" fill-rule="evenodd" id="path_0"/></svg>
